X:1
T:[ID 11-29c]
T:[ID 11-29c]
T:Bezeichnung standardisiert: Walzer Nr 14 Walzer
T:Urheber unbekannt Datum in der hier transkribierten schriftlichen Quelle: vermutlich um 1800
C:Urheber unbekannt
C:Datum in der hier transkribierten schriftlichen Quelle: vermutlich um 1800
L:1/8
M:3/8
K:Bb
V:1 treble 
V:1
 F | B2 F | c2 F | ded | c2 f | d/f/b/a/g/f/ | g/f/e/d/c/B/ | A/B/c/d/e/c/ | B2 :: F | d3 | e2 d | %12
 e2 d | [Fc][Fc] z | !/![D=Bf]3 |"^1)" x x x | BcA | B2 :: f/e/ | d/f/b/a/ d'/c'/ | b/a/g/f/e/d/ | %21
 c(c/e/)(d/f/) | e2 e | d/f/b/a/g/f/ | g/f/e/d/c/B/ | A/B/c/d/e/c/ | B2 :| %27

